dist/img/catalog-brand/quick_app_shape.svg

<svg width="150" height="70" viewBox="0 0 150 70" fill="none" xmlns="http://www.w3.org/2000/svg">
<g clip-path="url(#clip0_514_15259)">
<path fill-rule="evenodd" clip-rule="evenodd" d="M148.324 0.680799L79.0574 17.5362C78.8346 17.5909 78.6024 17.5878 78.3812 17.5268L15.8364 0.54776C15.0849 0.344287 14.3177 0.810709 14.1561 1.57138L0.0304234 67.8596C-0.176684 68.8332 0.706659 69.6893 1.6763 69.453L70.9442 52.5976C71.1654 52.5444 71.3976 52.546 71.6188 52.6054L134.197 69.453C134.946 69.6549 135.714 69.1869 135.875 68.4293L149.97 2.27571C150.177 1.30217 149.293 0.446023 148.324 0.682365V0.680799Z" fill="#EDF0F6"/>
</g>
<defs>
<clipPath id="clip0_514_15259">
<rect width="150" height="69" fill="white" transform="translate(0 0.5)"/>
</clipPath>
</defs>
</svg>

<svg width="150" height="70" viewBox="0 0 150 70" fill="none" xmlns="http://www.w3.org/2000/svg"><g clip-path="url(#clip0_514_15259)"><path fill-rule="evenodd" clip-rule="evenodd" d="M148.324.68L79.057 17.537a1.34 1.34 0 01-.676-.01L15.836.549a1.354 1.354 0 00-1.68 1.023L.03 67.86a1.353 1.353 0 001.646 1.593l69.268-16.855c.221-.054.454-.052.675.007l62.578 16.848a1.355 1.355 0 001.678-1.024L149.97 2.276a1.353 1.353 0 00-1.646-1.594V.681z" fill="#EDF0F6"/></g><defs><clipPath id="clip0_514_15259"><path fill="#fff" transform="translate(0 .5)" d="M0 0h150v69H0z"/></clipPath></defs></svg>
